X: 32
T: Gu li pa
L: 1/8
M: 2/4
K: G
G G/ A/ B B/ d/ [I:setbarnb 1]| 
c BA2- | 
A4- | 
A3d | 
G G/ A/ B B/ d/ | 
c B A z | 
G G/ A/ B B/ d/ | 
c BA2 | 
B/ c/d3 | 
B G A/ B/ A | 
G ED2- | 
D4 | 
G G/ A/ B B/ d/ | 
c BA2- | 
[M:3/4]A4d2 | 
[M:2/4]G G/ A/ B B/ d/ | 
c B A z | 
G G/ A/ B B/ d/ | 
c BA2 | 
[M:3/8]B/ c/d2 | 
[M:2/4]B B/ G/ A B/ A/ | 
GE2D- | 
D4- | 
D4 | 
G G/ A/ B B/ d/ | 
c BA2- | 
A4- | 
Ad3 | 
G G/ A/ B B/ d/ | 
c B A z | 
G G/ A/ B B/ d/ | 
c B A z | 
[M:3/8]B/ c/d2 | 
[M:2/4]B G A B/ A/ | 
GE2A- | 
A/ z/D3- | 
D4 |]

@@@ Tune index: 8700
